X: 1
T: Lough Gill
M: 6/8
L: 1/8
R: jig
K: Gmaj
|B |:DGG BGG | dGG BGG | DFA DFA | DFA cBA |
DGG BGG | dGG BGG | DFA cBA | BGF G3 :|
|: dgg bgg | aff gee | Ace a3 | gag fed |
Bdg bgg | aff gee | ABc dcA | AGF G3 :|
